apps/frontend/public/images/mischievous.svg

<svg fill="none" height="1062" viewBox="0 0 1062 1062" width="1062" xmlns="http://www.w3.org/2000/svg" xmlns:xlink="http://www.w3.org/1999/xlink"><filter id="a" color-interpolation-filters="sRGB" filterUnits="userSpaceOnUse" height="892.13" width="987.257" x="36.8291" y="84.684"><feFlood flood-opacity="0" result="BackgroundImageFix"/><feBlend in="SourceGraphic" in2="BackgroundImageFix" mode="normal" result="shape"/><feGaussianBlur result="effect1_foregroundBlur_5520_39230" stdDeviation="76.0794"/></filter><filter id="b" color-interpolation-filters="sRGB" filterUnits="userSpaceOnUse" height="599.669" width="694.796" x="181.782" y="231.889"><feFlood flood-opacity="0" result="BackgroundImageFix"/><feBlend in="SourceGraphic" in2="BackgroundImageFix" mode="normal" result="shape"/><feGaussianBlur result="effect1_foregroundBlur_5520_39230" stdDeviation="2.96413"/></filter><filter id="c" color-interpolation-filters="sRGB" filterUnits="userSpaceOnUse" height="131.895" width="316.734" x="372.09" y="725.812"><feFlood flood-opacity="0" result="BackgroundImageFix"/><feBlend in="SourceGraphic" in2="BackgroundImageFix" mode="normal" result="shape"/><feGaussianBlur result="effect1_foregroundBlur_5520_39230" stdDeviation="16.3027"/></filter><filter id="d" color-interpolation-filters="sRGB" filterUnits="userSpaceOnUse" height="131.895" width="316.734" x="372.09" y="202.698"><feFlood flood-opacity="0" result="BackgroundImageFix"/><feBlend in="SourceGraphic" in2="BackgroundImageFix" mode="normal" result="shape"/><feGaussianBlur result="effect1_foregroundBlur_5520_39230" stdDeviation="16.3027"/></filter><filter id="e" color-interpolation-filters="sRGB" filterUnits="userSpaceOnUse" height="645.717" width="334.268" x="145.369" y="207.824"><feFlood flood-opacity="0" result="BackgroundImageFix"/><feBlend in="SourceGraphic" in2="BackgroundImageFix" mode="normal" result="shape"/><feGaussianBlur result="effect1_foregroundBlur_5520_39230" stdDeviation="33.0995"/></filter><filter id="f" color-interpolation-filters="sRGB" filterUnits="userSpaceOnUse" height="608.172" width="296.723" x="600.051" y="226.596"><feFlood flood-opacity="0" result="BackgroundImageFix"/><feBlend in="SourceGraphic" in2="BackgroundImageFix" mode="normal" result="shape"/><feGaussianBlur result="effect1_foregroundBlur_5520_39230" stdDeviation="23.713"/></filter><filter id="g" color-interpolation-filters="sRGB" filterUnits="userSpaceOnUse" height="120.923" width="351.874" x="354.76" y="579.802"><feFlood flood-opacity="0" result="BackgroundImageFix"/><feBlend in="SourceGraphic" in2="BackgroundImageFix" mode="normal" result="shape"/><feGaussianBlur result="effect1_foregroundBlur_5520_39230" stdDeviation="1.97609"/></filter><filter id="h" color-interpolation-filters="sRGB" filterUnits="userSpaceOnUse" height="240.412" width="240.634" x="452.683" y="223.48"><feFlood flood-opacity="0" result="BackgroundImageFix"/><feBlend in="SourceGraphic" in2="BackgroundImageFix" mode="normal" result="shape"/><feGaussianBlur result="effect1_foregroundBlur_5520_39230" stdDeviation="30.6294"/></filter><filter id="i" color-interpolation-filters="sRGB" filterUnits="userSpaceOnUse" height="62.7305" width="88.4702" x="388.184" y="427.682"><feFlood flood-opacity="0" result="BackgroundImageFix"/><feBlend in="SourceGraphic" in2="BackgroundImageFix" mode="normal" result="shape"/><feGaussianBlur result="effect1_foregroundBlur_5520_39230" stdDeviation=".988044"/></filter><filter id="j" color-interpolation-filters="sRGB" filterUnits="userSpaceOnUse" height="62.7354" width="88.4702" x="584.738" y="427.677"><feFlood flood-opacity="0" result="BackgroundImageFix"/><feBlend in="SourceGraphic" in2="BackgroundImageFix" mode="normal" result="shape"/><feGaussianBlur result="effect1_foregroundBlur_5520_39230" stdDeviation=".988044"/></filter><linearGradient id="k"><stop offset="0" stop-color="#ff8c22"/><stop offset=".296368" stop-color="#ff8c22"/><stop offset=".598725" stop-color="#e96b0f"/><stop offset="1" stop-color="#e34513"/></linearGradient><radialGradient id="l" cx="0" cy="0" gradientTransform="matrix(499.28392923 296.84572219 -344.8852572 580.08471564 334.004 372.12)" gradientUnits="userSpaceOnUse" r="1" xlink:href="#k"/><linearGradient id="m" gradientUnits="userSpaceOnUse" x1="-165.28" x2="833.289" y1="75.3783" y2="669.069"><stop offset="0" stop-color="#ffdf15"/><stop offset="1" stop-color="#ecff15"/></linearGradient><radialGradient id="n" cx="0" cy="0" gradientTransform="matrix(499.28392923 296.84572219 -344.8852572 580.08471564 332.727 373.198)" gradientUnits="userSpaceOnUse" r="1" xlink:href="#k"/><linearGradient id="o" gradientUnits="userSpaceOnUse" x1="530.697" x2="530.697" y1="583.754" y2="696.772"><stop offset="0" stop-color="#ffcd1e"/><stop offset="1" stop-color="#fff509"/></linearGradient><linearGradient id="p"><stop offset="0" stop-color="#ecff15"/><stop offset="1" stop-color="#ffdf15"/></linearGradient><linearGradient id="q" gradientUnits="userSpaceOnUse" x1="432.419" x2="432.419" xlink:href="#p" y1="488.437" y2="429.47"/><linearGradient id="r" gradientUnits="userSpaceOnUse" x1="628.973" x2="628.973" xlink:href="#p" y1="488.437" y2="429.47"/><path d="m530.448 824.552c-21.241-.065-42.212-4.762-61.452-13.762l-.273-.117h-.311c-11.661 1.963-23.465 2.953-35.291 2.959-134.622 0-244.133-126.933-244.133-282.967s109.511-282.986 244.133-282.986c11.826.006 23.63.995 35.291 2.958h.311l.273-.136c19.24-9 40.211-13.697 61.452-13.762 21.247.065 42.224 4.762 61.471 13.762l.273.136h.292c11.667-1.962 23.478-2.952 35.31-2.958 134.621 0 244.133 126.952 244.133 282.986s-109.512 282.967-244.133 282.967c-11.832-.006-23.643-.996-35.31-2.959h-.292l-.273.117c-19.247 9.001-40.224 13.697-61.471 13.762z" fill="url(#l)"/><g filter="url(#a)"><path d="m530.448 824.655c-21.241-.065-42.212-4.761-61.452-13.762l-.273-.116h-.311c-11.661 1.963-23.465 2.952-35.291 2.958-134.622 0-244.133-126.933-244.133-282.966 0-156.034 109.511-282.987 244.133-282.987 11.826.006 23.63.996 35.291 2.959h.311l.273-.136c19.24-9.001 40.211-13.697 61.452-13.762 21.247.065 42.224 4.761 61.471 13.762l.273.136h.292c11.667-1.962 23.478-2.952 35.31-2.959 134.621 0 244.133 126.953 244.133 282.987 0 156.033-109.512 282.966-244.133 282.966-11.832-.006-23.643-.995-35.31-2.958h-.292l-.273.116c-19.247 9.001-40.224 13.697-61.471 13.762z" fill="url(#m)"/></g><g filter="url(#b)"><path d="m529.17 825.63c-21.241-.065-42.212-4.762-61.452-13.762l-.272-.117h-.312c-11.661 1.963-23.465 2.953-35.29 2.959-134.622 0-244.134-126.933-244.134-282.967s109.512-282.986 244.134-282.986c11.825.006 23.629.995 35.29 2.959h.312l.272-.137c19.24-9 40.211-13.696 61.452-13.762 21.247.065 42.225 4.762 61.472 13.762l.272.137h.292c11.668-1.963 23.478-2.952 35.31-2.959 134.622 0 244.134 126.952 244.134 282.986s-109.512 282.967-244.134 282.967c-11.832-.006-23.642-.996-35.31-2.959h-.292l-.272.117c-19.247 9.001-40.225 13.697-61.472 13.762z" fill="url(#n)"/></g><g filter="url(#c)"><path d="m652.943 761.423c-34.103 37.159-76.46 59.233-122.495 59.233-46.036 0-88.392-22.035-122.476-59.194" stroke="#d13f00" stroke-miterlimit="10" stroke-width="8.89239"/></g><g filter="url(#d)"><path d="m652.943 298.982c-34.103-37.159-76.46-59.233-122.495-59.233-46.036 0-88.392 22.035-122.476 59.194" stroke="#d13f00" stroke-miterlimit="10" stroke-width="8.89239"/></g><g filter="url(#e)"><path d="m245.243 530.692c0 235.53 183.168 256.649 166.681 256.649-110.66 0-200.356-114.845-200.356-256.649 0-141.805 89.696-256.67 200.356-256.67 20.108 0-166.681 21.023-166.681 256.67z" fill="#fff" fill-opacity=".29"/></g><g filter="url(#f)"><path d="m815.673 530.692c0 235.53-183.169 256.649-166.682 256.649 110.66 0 200.356-114.845 200.356-256.649 0-141.805-89.696-256.67-200.356-256.67-20.107 0 166.682 21.023 166.682 256.67z" fill="#d44210"/></g><g filter="url(#g)"><path d="m702.681 583.754s-13.423 74.419-96.908 102.443l-9.482-25.674-36.621-3.075-1.854 38.404c-7.102.614-14.561.92-22.378.92-146.953 0-176.726-113.018-176.726-113.018s22.515 3.917 63.916 6.972l3.18 29.963 40.114 6.561 6.789-33.743c17.56.646 36.934 1.057 58.044 1.057 108.946 0 171.926-10.81 171.926-10.81z" fill="url(#o)"/></g><g filter="url(#h)"><ellipse cx="573" cy="343.686" fill="#f90" rx="51.8605" ry="65.3651" transform="matrix(-.70417584 .71002562 -.71002562 -.70417584 1220.518623 178.856697)"/></g><g filter="url(#i)"><path d="m474.488 449.009c.321-3.371.234-6.766-.258-10.109-.191-1.298-1.276-2.26-2.584-2.377l-76.39-6.853c-1.316-.118-2.562.646-2.973 1.901-1.028 3.138-1.688 6.393-1.962 9.696-.978 11.461 2.517 22.852 9.717 31.667s17.516 14.332 28.677 15.337 22.254-2.585 30.838-9.978c8.584-7.394 13.957-17.987 14.935-29.448z" fill="url(#q)"/></g><g filter="url(#j)"><path d="m670.941 440.974c-.277-3.202-.922-6.359-1.921-9.408-.411-1.253-1.653-2.016-2.967-1.901l-76.314 6.683c-1.305.114-2.391 1.07-2.585 2.365-.485 3.244-.57 6.54-.251 9.811.319 5.654 1.767 11.187 4.26 16.27 2.492 5.083 5.977 9.613 10.248 13.32 4.271 3.708 9.242 6.518 14.617 8.263 5.375 1.746 11.045 2.392 16.674 1.899 5.628-.492 11.101-2.112 16.093-4.764 4.992-2.653 9.402-6.283 12.969-10.676 3.566-4.393 6.216-9.459 7.792-14.898 1.577-5.439 2.047-11.14 1.385-16.764z" fill="url(#r)"/></g></svg>

<svg width="1062" height="1062" viewBox="0 0 1062 1062" fill="none" xmlns="http://www.w3.org/2000/svg">
<path d="M530.448 824.552C509.207 824.487 488.236 819.79 468.996 810.79L468.723 810.673H468.412C456.751 812.636 444.947 813.626 433.121 813.632C298.499 813.632 188.988 686.699 188.988 530.665C188.988 374.631 298.499 247.679 433.121 247.679C444.947 247.685 456.751 248.674 468.412 250.637H468.723L468.996 250.501C488.236 241.501 509.207 236.804 530.448 236.739C551.695 236.804 572.672 241.501 591.919 250.501L592.192 250.637H592.484C604.151 248.675 615.962 247.685 627.794 247.679C762.415 247.679 871.927 374.631 871.927 530.665C871.927 686.699 762.415 813.632 627.794 813.632C615.962 813.626 604.151 812.636 592.484 810.673H592.192L591.919 810.79C572.672 819.791 551.695 824.487 530.448 824.552V824.552Z" fill="url(#paint0_radial_5520_39230)"/>
<g filter="url(#filter0_f_5520_39230)">
<path d="M530.448 824.655C509.207 824.59 488.236 819.894 468.996 810.893L468.723 810.777H468.412C456.751 812.74 444.947 813.729 433.121 813.735C298.499 813.735 188.988 686.802 188.988 530.769C188.988 374.735 298.499 247.782 433.121 247.782C444.947 247.788 456.751 248.778 468.412 250.741H468.723L468.996 250.605C488.236 241.604 509.207 236.908 530.448 236.843C551.695 236.908 572.672 241.604 591.919 250.605L592.192 250.741H592.484C604.151 248.779 615.962 247.789 627.794 247.782C762.415 247.782 871.927 374.735 871.927 530.769C871.927 686.802 762.415 813.735 627.794 813.735C615.962 813.729 604.151 812.74 592.484 810.777H592.192L591.919 810.893C572.672 819.894 551.695 824.59 530.448 824.655V824.655Z" fill="url(#paint1_linear_5520_39230)"/>
</g>
<g filter="url(#filter1_f_5520_39230)">
<path d="M529.17 825.63C507.929 825.565 486.958 820.868 467.718 811.868L467.446 811.751H467.134C455.473 813.714 443.669 814.704 431.844 814.71C297.222 814.71 187.71 687.777 187.71 531.743C187.71 375.709 297.222 248.757 431.844 248.757C443.669 248.763 455.473 249.752 467.134 251.716H467.446L467.718 251.579C486.958 242.579 507.929 237.883 529.17 237.817C550.417 237.882 571.395 242.579 590.642 251.579L590.914 251.716H591.206C602.874 249.753 614.684 248.764 626.516 248.757C761.138 248.757 870.65 375.709 870.65 531.743C870.65 687.777 761.138 814.71 626.516 814.71C614.684 814.704 602.874 813.714 591.206 811.751H590.914L590.642 811.868C571.395 820.869 550.417 825.565 529.17 825.63V825.63Z" fill="url(#paint2_radial_5520_39230)"/>
</g>
<g filter="url(#filter2_f_5520_39230)">
<path d="M652.943 761.423C618.84 798.582 576.483 820.656 530.448 820.656C484.412 820.656 442.056 798.621 407.972 761.462" stroke="#D13F00" stroke-width="8.89239" stroke-miterlimit="10"/>
</g>
<g filter="url(#filter3_f_5520_39230)">
<path d="M652.943 298.982C618.84 261.823 576.483 239.749 530.448 239.749C484.412 239.749 442.056 261.784 407.972 298.943" stroke="#D13F00" stroke-width="8.89239" stroke-miterlimit="10"/>
</g>
<g filter="url(#filter4_f_5520_39230)">
<path d="M245.243 530.692C245.243 766.222 428.411 787.341 411.924 787.341C301.264 787.341 211.568 672.496 211.568 530.692C211.568 388.887 301.264 274.022 411.924 274.022C432.032 274.022 245.243 295.045 245.243 530.692Z" fill="white" fill-opacity="0.29"/>
</g>
<g filter="url(#filter5_f_5520_39230)">
<path d="M815.673 530.692C815.673 766.222 632.504 787.341 648.991 787.341C759.651 787.341 849.347 672.496 849.347 530.692C849.347 388.887 759.651 274.022 648.991 274.022C628.884 274.022 815.673 295.045 815.673 530.692Z" fill="#D44210"/>
</g>
<g filter="url(#filter6_f_5520_39230)">
<path d="M702.681 583.754C702.681 583.754 689.258 658.173 605.773 686.197L596.291 660.523L559.67 657.448L557.816 695.852C550.714 696.466 543.255 696.772 535.438 696.772C388.485 696.772 358.712 583.754 358.712 583.754C358.712 583.754 381.227 587.671 422.628 590.726L425.808 620.689L465.922 627.25L472.711 593.507C490.271 594.153 509.645 594.564 530.755 594.564C639.701 594.564 702.681 583.754 702.681 583.754Z" fill="url(#paint3_linear_5520_39230)"/>
</g>
<g filter="url(#filter7_f_5520_39230)">
<ellipse cx="573" cy="343.686" rx="51.8605" ry="65.3651" transform="rotate(134.763 573 343.686)" fill="#FF9900"/>
</g>
<g filter="url(#filter8_f_5520_39230)">
<path d="M474.488 449.009C474.809 445.638 474.722 442.243 474.23 438.9C474.039 437.602 472.954 436.64 471.646 436.523L395.256 429.67C393.94 429.552 392.694 430.316 392.283 431.571C391.255 434.709 390.595 437.964 390.321 441.267C389.343 452.728 392.838 464.119 400.038 472.934C407.238 481.749 417.554 487.266 428.715 488.271C439.876 489.276 450.969 485.686 459.553 478.293C468.137 470.899 473.51 460.306 474.488 448.845V449.009Z" fill="url(#paint4_linear_5520_39230)"/>
</g>
<g filter="url(#filter9_f_5520_39230)">
<path d="M670.941 440.974C670.664 437.772 670.019 434.615 669.02 431.566C668.609 430.313 667.367 429.55 666.053 429.665L589.739 436.348C588.434 436.462 587.348 437.418 587.154 438.713C586.669 441.957 586.584 445.253 586.903 448.524C587.222 454.178 588.67 459.711 591.163 464.794C593.655 469.877 597.14 474.407 601.411 478.114C605.682 481.822 610.653 484.632 616.028 486.377C621.403 488.123 627.073 488.769 632.702 488.276C638.33 487.784 643.803 486.164 648.795 483.512C653.787 480.859 658.197 477.229 661.764 472.836C665.33 468.443 667.98 463.377 669.556 457.938C671.133 452.499 671.603 446.798 670.941 441.174V440.974Z" fill="url(#paint5_linear_5520_39230)"/>
</g>
<defs>
<filter id="filter0_f_5520_39230" x="36.8291" y="84.684" width="987.257" height="892.13" filterUnits="userSpaceOnUse" color-interpolation-filters="sRGB">
<feFlood flood-opacity="0" result="BackgroundImageFix"/>
<feBlend mode="normal" in="SourceGraphic" in2="BackgroundImageFix" result="shape"/>
<feGaussianBlur stdDeviation="76.0794" result="effect1_foregroundBlur_5520_39230"/>
</filter>
<filter id="filter1_f_5520_39230" x="181.782" y="231.889" width="694.796" height="599.669" filterUnits="userSpaceOnUse" color-interpolation-filters="sRGB">
<feFlood flood-opacity="0" result="BackgroundImageFix"/>
<feBlend mode="normal" in="SourceGraphic" in2="BackgroundImageFix" result="shape"/>
<feGaussianBlur stdDeviation="2.96413" result="effect1_foregroundBlur_5520_39230"/>
</filter>
<filter id="filter2_f_5520_39230" x="372.09" y="725.812" width="316.734" height="131.895" filterUnits="userSpaceOnUse" color-interpolation-filters="sRGB">
<feFlood flood-opacity="0" result="BackgroundImageFix"/>
<feBlend mode="normal" in="SourceGraphic" in2="BackgroundImageFix" result="shape"/>
<feGaussianBlur stdDeviation="16.3027" result="effect1_foregroundBlur_5520_39230"/>
</filter>
<filter id="filter3_f_5520_39230" x="372.09" y="202.698" width="316.734" height="131.895" filterUnits="userSpaceOnUse" color-interpolation-filters="sRGB">
<feFlood flood-opacity="0" result="BackgroundImageFix"/>
<feBlend mode="normal" in="SourceGraphic" in2="BackgroundImageFix" result="shape"/>
<feGaussianBlur stdDeviation="16.3027" result="effect1_foregroundBlur_5520_39230"/>
</filter>
<filter id="filter4_f_5520_39230" x="145.369" y="207.824" width="334.268" height="645.717" filterUnits="userSpaceOnUse" color-interpolation-filters="sRGB">
<feFlood flood-opacity="0" result="BackgroundImageFix"/>
<feBlend mode="normal" in="SourceGraphic" in2="BackgroundImageFix" result="shape"/>
<feGaussianBlur stdDeviation="33.0995" result="effect1_foregroundBlur_5520_39230"/>
</filter>
<filter id="filter5_f_5520_39230" x="600.051" y="226.596" width="296.723" height="608.172" filterUnits="userSpaceOnUse" color-interpolation-filters="sRGB">
<feFlood flood-opacity="0" result="BackgroundImageFix"/>
<feBlend mode="normal" in="SourceGraphic" in2="BackgroundImageFix" result="shape"/>
<feGaussianBlur stdDeviation="23.713" result="effect1_foregroundBlur_5520_39230"/>
</filter>
<filter id="filter6_f_5520_39230" x="354.76" y="579.802" width="351.874" height="120.923" filterUnits="userSpaceOnUse" color-interpolation-filters="sRGB">
<feFlood flood-opacity="0" result="BackgroundImageFix"/>
<feBlend mode="normal" in="SourceGraphic" in2="BackgroundImageFix" result="shape"/>
<feGaussianBlur stdDeviation="1.97609" result="effect1_foregroundBlur_5520_39230"/>
</filter>
<filter id="filter7_f_5520_39230" x="452.683" y="223.48" width="240.634" height="240.412" filterUnits="userSpaceOnUse" color-interpolation-filters="sRGB">
<feFlood flood-opacity="0" result="BackgroundImageFix"/>
<feBlend mode="normal" in="SourceGraphic" in2="BackgroundImageFix" result="shape"/>
<feGaussianBlur stdDeviation="30.6294" result="effect1_foregroundBlur_5520_39230"/>
</filter>
<filter id="filter8_f_5520_39230" x="388.184" y="427.682" width="88.4702" height="62.7305" filterUnits="userSpaceOnUse" color-interpolation-filters="sRGB">
<feFlood flood-opacity="0" result="BackgroundImageFix"/>
<feBlend mode="normal" in="SourceGraphic" in2="BackgroundImageFix" result="shape"/>
<feGaussianBlur stdDeviation="0.988044" result="effect1_foregroundBlur_5520_39230"/>
</filter>
<filter id="filter9_f_5520_39230" x="584.738" y="427.677" width="88.4702" height="62.7354" filterUnits="userSpaceOnUse" color-interpolation-filters="sRGB">
<feFlood flood-opacity="0" result="BackgroundImageFix"/>
<feBlend mode="normal" in="SourceGraphic" in2="BackgroundImageFix" result="shape"/>
<feGaussianBlur stdDeviation="0.988044" result="effect1_foregroundBlur_5520_39230"/>
</filter>
<radialGradient id="paint0_radial_5520_39230" cx="0" cy="0" r="1" gradientUnits="userSpaceOnUse" gradientTransform="translate(334.004 372.12) rotate(30.7333) scale(580.863 674.866)">
<stop stop-color="#FF8C22"/>
<stop offset="0.296368" stop-color="#FF8C22"/>
<stop offset="0.598725" stop-color="#E96B0F"/>
<stop offset="1" stop-color="#E34513"/>
</radialGradient>
<linearGradient id="paint1_linear_5520_39230" x1="-165.28" y1="75.3783" x2="833.289" y2="669.069" gradientUnits="userSpaceOnUse">
<stop stop-color="#FFDF15"/>
<stop offset="1" stop-color="#ECFF15"/>
</linearGradient>
<radialGradient id="paint2_radial_5520_39230" cx="0" cy="0" r="1" gradientUnits="userSpaceOnUse" gradientTransform="translate(332.727 373.198) rotate(30.7333) scale(580.863 674.866)">
<stop stop-color="#FF8C22"/>
<stop offset="0.296368" stop-color="#FF8C22"/>
<stop offset="0.598725" stop-color="#E96B0F"/>
<stop offset="1" stop-color="#E34513"/>
</radialGradient>
<linearGradient id="paint3_linear_5520_39230" x1="530.697" y1="583.754" x2="530.697" y2="696.772" gradientUnits="userSpaceOnUse">
<stop stop-color="#FFCD1E"/>
<stop offset="1" stop-color="#FFF509"/>
</linearGradient>
<linearGradient id="paint4_linear_5520_39230" x1="432.419" y1="488.437" x2="432.419" y2="429.47" gradientUnits="userSpaceOnUse">
<stop stop-color="#ECFF15"/>
<stop offset="1" stop-color="#FFDF15"/>
</linearGradient>
<linearGradient id="paint5_linear_5520_39230" x1="628.973" y1="488.437" x2="628.973" y2="429.47" gradientUnits="userSpaceOnUse">
<stop stop-color="#ECFF15"/>
<stop offset="1" stop-color="#FFDF15"/>
</linearGradient>
</defs>
</svg>
